X: 106
T:Paddy Fahy's
C:Paddy Fahy
R:reel
H:See also #622
Z:id:hn-reel-581
M:C|
K:G
G,2B,D GBdB|c2ag fgdc|BGGA BcdB|cAFA GDB,A,|
G,2B,D GBdB|c2ag fgdc|BGGA BcdB|1 cAFA G2B,A,:|2 cAFA G2Bc||
|:dggf gdBG|FGAB c2Bc|Aaag abag|fddB Adfa|
g2fa gdBG|FGAB c2Bc|dggf d2ed|1 cAFA G2Bc:|2 cAFA G2B,A,||

% Output from ABC2Win  Version 2.1 i on 17/02/2003
